X:1
T:James Gibb editions
T:Bone Jesu, verbum Patris - Schütz
T:#
%%score [ 1 2 ] 3
L:1/8
Q:1/4=96
M:4/4
K:C
V:1 treble nm="Soprano I"
V:2 treble nm="Soprano II"
V:3 bass nm="Continuo"
V:1
"^Bone Jesu, verbum Patris, SWV 313""^Heinrich Schütz\n(1585-1672)" c3 d B2 B2 | z4 A3 B | %2
w: Bo- ne Je- su,|bo- ne|
 ^G2 G2 eddc | c3 B B2 B2 | e3 f d2 d2 | gffe e3 d | d2 d2 z4 | %7
w: Je- su, bo- ne Je- su,|ver- bum Pa- tris,|bo- ne Je- su,|bo- ne Je- su, ver- bum|Pa- tris,|
 (F/E/D/E/ F/G/A/B/ c/B/A/B/ c/d/e/f/ | g2) fe d2 e2 | d2 dd (G/F/E/F/ G/A/B/c/ | %10
w: splen\- * * * * * * * * * * * * * * *|* dor pa- ter- nae|glo- ri- ae, splen\- * * * * * * *|
 d)d z2 (A/G/F/G/ A/B/c/d/ | e2) dc B2 A2 | (^G2 A3) A G2 | (A/=G/F/G/ A/B/c/d/ e)e z2 | %14
w: * dor, splen\- * * * * * * *|* dor pa- ter- nae|glo\- * ri- ae,|splen\- * * * * * * * * dor,|
 (G/F/E/F/ G/A/B/c/ d2) cB | (AB) (cB) A3 G | G8 | z8 | z8 | z4 z AB^c | d3 =c BBcd | e3 d c2 ef | %22
w: splen\- * * * * * * * * dor pa|ter\- * nae * glo- ri-|ae,|||in quem de|si- de- rant, in quem de-|si- de- rant an- ge-|
 ^c2 d2 d3 c | d4 z4 | z Bcd e3 d | c2 fg e2 d2 | c4 B4 | A4 z4 | z4 d2 dd | c2 cc BdcB | %30
w: li pro- spi- ce-|re,|in quem de- si- de-|rant an- ge- li pro-|spi- ce-|re,|do- ce me|fa- ce- re vo- lun- ta- tem|
 A2 A2 c2 cc | B2 BB AcBA | G2 G2 e2 ee | d2 dd cedc | B2 B2 z4 | z8 | z8 | z8 | z4 z2 AA | %39
w: tu- am, do- ce me|fa- ce- re vo- lun- ta- tem|tu- am. do- ce me|fa- ce- re vo- lun- ta- tem|tu- am,||||ut a|
 A2 AA B2 c2 | d4 d4 | z2 c2 (A4- | A2 B2) ^G4 | edfe c2 dc | (B>cB>c d>e f/e/f/d/ | e3) e e4 | %46
w: Spi- ri- tu tu- o|bo- no|de- du\-|* * ctus|ad be- a- tam il- lam per-|ve\- * * * * * * * * *|* ni- am|
 d3 d d4 | c4 z2 GG | G2 GG A2 B2 | c4 c4 | z4 z2 B2 | ^c4 d4 | z4 AGBA | G2 AG (^F>GF>G | %54
w: ci- vi- ta-|tem, ut a|Spi- ri- tu tu- o|bo- no|de-|du- ctus|ad be- a- tam|il- lam per- ve\- * * *|
 A>G A/G/A/^F/ G>F G/F/G/E/ | ^F3) F F4 | ^FF G4 F2 | dced cBdc | A2 BA ^G3 G | ^G4 B3 B | B8 | %61
w: |* ni- am|ci- vi- ta- tem,|ad be- a- tam, ad be- a- tam|il- lam per- ve- ni-|am ci- vi-|ta-|
 A4 z2 AB | ^cdec (d4- | d2 ^c2) d4 | z2 z A FE D2 | EF E>D D4 | z AB^c dA d2- | d2 =cB A3 G | %68
w: tem, u- bi|est di- es ae- ter\-|* * nus|et u- nus o-|mni- um spi- ri- tus,|u- bi est cer- ta, cer\-|* ta se- cu- ri-|
 G4 z2 GA | B2 cc c2 B2 | c2 Bc d2 ed | d3 c c4 | z8 | z2 cc c2 Bc | A3 A A4 | z8 | z2 dd d2 AA | %77
w: tas, et se-|cu- ra ae- ter- ni-|tas, et se- cu- ra ae-|ter- ni- tas,||et tran- quil- la fe-|li- ci- tas,||et su- a- vis ju-|
 B3 B B2 d2- | d2 e4 ^d2 | e8 ||[M:3/2][Q:1/4=192] E4 A4 B4 | c4 c4 z4 | e4 A4 B4 | c4 c4 d4 | %84
w: cun- di- tas, ju\-|* cun- di-|tas,|u- bi tu|De- us,|u- bi tu|De- us cum|
 e4 e4 c4 |[M:3/2][Q:1/4=192][Q:1/4=192][Q:1/4=192] A6 c2 B4 | c8 c4 | e4 d2 c2 B4 | A4 z4 z4 | %89
w: Pa- tre et|Spi- ri- tu|san- cto|vi- vis et re-|gnas,|
 d4 c2 B2 A4 | G4 z4 z4 | g4 f2 e2 d4 | c6 G2 E2 F2 | G2 E2 F2 G2 A4 | A4 A6 ^G2 | A8 z4 | z12 | %97
w: vi- vis et re-|gnas,|vi- vis et re-|gnas per in- fí-|ni- ta se- cu- lo-|rum se- cu-|la,||
 A4 G2 F2 E4 | D6 A2 ^F2 G2 | A2 ^F2 G2 A2 B4 | G4"^5" G6 ^F2 | G8 z4 | z12 | G4 F2 E2 D4 | %104
w: vi- vis et re-|gnas per in- fi-|ni- ta se- cu- lo-|rum se- cu|la,||vi- vis et re-|
 E2 e2 d2 c2 B4 | c8 z4 | z4 z4 c4 | A2 B2 c2 A2 B2 c2 | d4 d4 c4 | B2 c2 d2 B2 c2 d2 | e12- | %111
w: gnas, vi- vis et re-|gnas|per|in- fi- ni- ta se- cu-|lo- rum, per|in- fi- ni- ta se- cu-|lo\-|
 e8 c4- | c4 B6 A2 | A8 z4 | z4 z4 A4 | ^G2 A2 B2 G2 A2 B2 | c8 A4- | A4 A4 ^G4 || %118
w: * rum|* se- cu-|la,|per|in- fi- ni- ta se- cu-|lo- rum|* se- cu-|
[M:4/4][Q:1/4=96] A8 | z4 (A3 G | F3 E D4- | DE/F/ G/A/B/^c/ d3 e | f4 e2 d2) | !fermata!e8 |] %124
w: la,|A\- *||||men.|
V:2
 A3 B ^G2 G2 | eddc c3 B | B2 B2 z4 | A3 B ^G2 G2 | c3 d B2 B2 | eddc c3 B | %6
w: Bo- ne Je- su,|bo- ne Je- su, ver- bum|Pa- tris,|bo- ne Je- su,|bo- ne Je- su,|bo- ne Je- su, ver- bum|
 B2 B2 (G/F/E/F/ G/A/B/c/ | d)d z2 (A/G/F/G/ A/B/c/d/ | e2) dc B2 c2 | c3 B c4 | %10
w: Pa- tris, splen\- * * * * * * *|* dor, splen\- * * * * * * *|* dor pa- ter- nae|glo- ri- ae,|
 (B/A/G/A/ B/c/d/e/ f)f z2 | (A/G/F/G/ A/B/c/d/ e2) dc | (Bc) (dc) B3 B | A4 (G/F/E/F/ G/A/B/c/ | %14
w: splen\- * * * * * * * * dor,|splen\- * * * * * * * * dor pa-|ter\- * nae * glo- ri-|ae. splen\- * * * * * * *|
 d2) cB A2 G2 | (^F2 G4) F2 | G8 | z DE^F G3 =F | EE^FG A3 G | ^F2 AB F2 G2 | G3 ^F G4 | z8 | %22
w: * dor pa- ter- nae|glo\- * ri-|ae,|in quem de- si- de-|rant, in quem de- si- de-|rant an- ge- li pro-|spi- ce- re,||
 z EFG A3 G | ^FFGA B3 A | GGAB c3 B | A2 de c2 B2- | B2 A4 ^G2 | A4 A2 AA | G2 GG FAGF | %29
w: in quem de- si- de-|rant, in quem de- si- de-|rant, in quem de- si- de-|rant an- ge- li pro\-|* spi- ce-|re, do- ce me|fa- ce- re vo- lun- ta- tem|
 E2 E2 G2 GG | F2 FF EGFE | D2 D2 z4 | z4 c2 cc | B2 BB AcBA | ^G2 G2 z2 =GG | G2 GG A2 B2 | %36
w: tu- am, do- ce me|fa- ce- re vo- lun- ta- tem|tu- am,|do- ce me|fa- ce- re vo- lun- ta- tem|tu- am, ut a|Spi- ri- tu tu- o|
 c4 c4 | z2 B2 (G4- | G2 A2) ^F4 | z8 | z8 | z8 | z8 | z8 | z8 | z8 | z8 | z4 z2 EE | E2 EE F2 G2 | %49
w: bo- no|de- du\-|* * ctus,|||||||||ut a|Spi- ri- tu tu- o|
 A4 A4 | z2 B2 (G4- | G2 A2) ^F4 | dced c2 dc | (B>cB>c d>c d/c/d/B/ | c>B c/B/c/A/ B>A B/A/B/G/ | %55
w: bo- no|de- du\-|* * ctus|ad be- a- tam il- lam per-|ve\- * * * * * * * * *||
 A3) A A4 | A3 A A4 | G4 edfe | c2 dc B3 B | B4 ^FG (A2- | A2 ^G^F G4) | A8 | z2 AG FEDF | E4 D4 | %64
w: * ni- am|ci- vi- ta-|tem, ad be- a- tam|il- lam per- ve- ni-|am ci- vi- ta\-||tem,|u- bi est di- es ae-|ter- nus|
 z A^ce d2 cB | (^c d2) c d4 | z8 | z8 | z DE^F GD G2- | G2 =FE D3 C | C2 GA B2 cc | c2 B2 c2 ee | %72
w: et u- nus o- mni- um|spi\- * ri- tus|||u- bi est cer- ta, cer\-|* ta se- cu- ri-|tas, et se- cu- ra ae-|ter- ni- tas, et ae-|
 e2 de c3 c | c4 z4 | z4 z2 A2 | A2 GA ^F3 F | ^F4 z4 | z2 dd d2 AA | (BAGA ^F3) E | E8 || %80
w: ter- na tran- qui- li-|tas,|et|fe- lix su- a- vi-|tas,|et se- cu- ra ju-|cun\- * * * * di-|tas,|
[M:3/2] z12 | e4 A4 B4 | c4 c4 ^G4 | A4 A4 B4 | c4 c4 e4 |[M:3/2] f6 e2 d4 | e8 e4 | z12 | %88
w: |u- bi tu|De- us, tu|De- us cum|Pa- tre et|Spi- ri- tu|san- cto||
 A4 G2 F2 E4 | D4 z4 z4 | G4 F2 E2 D4 | E2 e2 d2 c2 B4 | c8 z4 | z12 | e4 d2 c2 B4 | A6 c2 A2 B2 | %96
w: vi- vis et re-|gnas,|vi- vis et re-|gnas, vi- vis et re-|gnas,||vi- vis et re-|gnas per in- fi-|
 c2 A2 B2 c2 d4 | d4 d6 ^c2 | d8 z4 | z12 | d4 c2 B2 A4 | G6 d2 B2 c2 | d2 B2 c2 d2 e4 | c4 c6 B2 | %104
w: ni- ta se- cu- lo-|rum se- cu-|la,||vi- vis et re-|gnas per in- fi-|ni- ta se- cu- lo-|rum se- cu-|
 c2 g2 f2 e2 d4 | c8 G4 | E2 F2 G2 E2 F2 G2 | A4 A4 G4 | ^F2 G2 A2 F2 G2 A2 | B4 B4 A4 | %110
w: la, vi- vis et re-|gnas per|in- fi- ni- ta se- cu-|lo- rum, per|in- fi- ni- ta se- cu-|lo- rum, per|
 ^G2 A2 B2 G2 A2 B2 | c8 A4- | A4 A4 ^G4 | A8 c4 | B2 c2 d2 B2 c2 d2 | e12- | e8 c4- | c4 B6 B2 || %118
w: in- fi- ni- ta se- cu-|lo- rum|* se- cu-|la, per|in- fi- ni- ta se- cu-|lo\-|* rum|* se- cu-|
[M:4/4] A8 | z8 | (A3 G F3 E | D4- DE/F/ G/A/B/^c/ | d4 ^c2 B2) | !fermata!^c8 |] %124
w: la,||A\- * * *|||men.|
V:3
 A,,4 E,4 | A,,2 B,,2 C,2 D,2 | E,4 A,2 ^G,2 | A,2 D,2 E,4 | C,4 G,4 | C,2 D,2 E,2 ^F,2 | %6
w: |* * 6 *|||||
 G,4 G,2 F,E, | D,2 C,B,, A,,2 G,F, | E,2 F,2 G,2 C,2 | x2- x2 C,2 B,,A,, | G,,2 F,E, D,2 C,B,, | %11
w: |||4 * * *||
 A,,4 ^G,,2 A,,2 | E,2 D,2 x2- x2 | A,,2 B,,2 C,2 B,,A,, | G,,4 ^F,,2 G,,2 | D,2 C,2 x2- x2 | %16
w: |* * 4|||* * 4|
 G,,8 | G,,4 B,,4 | C,4 ^C,4 | D,4 (x2- x2 | x2) x2 G,,4 | ^G,4 A,4 | x2- x4 x2 | D,4 ^D,4 | %24
w: |* 6||||||* 6|
 E,2 D,2 C,2 D,E, | F,2 D,2 A,,2 B,,2 | x2-xD, x2- x2 | A,,8 | E,4 D,4 | A,,4 G,,4 | D,4 C,4 | %31
w: ||5 * 4|||||
 G,,4 F,,4 | C,4 A,,2 C,2 | G,,4 A,,4 | E,4 C,4- | C,2 C,2 A,,2 G,,2 | F,,4 F,,4- | F,,2 G,2 E,4- | %38
w: |||||||
 E,4 D,4- | D,2 D,2 B,,2 A,,2 | G,,4 G,,4- | G,,2 A,2 F,4- | F,4 E,4 | C,2 D,2 E,2 ^F,2 | %44
w: |||||* * 6 *|
 G,2 A,2 B,2 G,2 | C4 C,4 | F,2 E,2 G,4 | C,4 z2 C,C, | C,2 C,C, A,,2 G,,2 | F,,4 F,,4- | %50
w: ||||* * * 6 *||
 F,,2 G,2 E,4- | E,4 D,4 | G,,4 A,,4 | E,4 D,2 B,,2 | A,,4 G,,4 | D,3 D, D,4 | D,2 C,2 x2- x2 | %57
w: * * 5|6 *|||||* * 4|
 G,,4 A,,4- | A,,4 E,3 E, | E,4 D,2 ^C,2 | x4- x4 | A,,8 | A,4 D,4 | x2- x2 D,4 | A,4 D,4 | %65
w: |||4|||4 *||
 x- x2 x D,4 | D,8 | x2- x4 x2 | G,,8 | x2- x4 x2 | C,4 G,2 E,2 | x2- x2 C,2 C2- | C2 B,2 A,4 | %73
w: ||||3|* * 6|4 * *||
 A,2 A,4 G,2 | F,4 F,2 F,2- | F,2 E,2 D,4 | D,2 D,4 ^C,2 | B,,6 ^F,2 | G,2 E,2 x2- x2 | E,8 || %80
w: ||||* 6|* * 4||
[M:3/2] A,,8 E,4 | A,8 ^G,4 | A,8 E,4 | A,8 G,4 | C8 A,4 |[M:3/2] F,6 C,2 G,4 | C,8 C,4 | %87
w: |||||||
 C,4 D,4 E,4 | F,4 G,4 A,4 | B,,4 C,4 D,4 | E,4 F,4 G,4 | C,4 F,4 G,4 | C,12 | E,8 D,4 | %94
w: |||||||
 ^C,4 D,4 x2- x2 | A,,12 | A,8 G,4 | ^F,4 G,4 A,4 | D,12 | D,8 G,,4 | B,,4 C,4 D,4 | G,,12 | %102
w: * * 4||||||||
 G,8 C,4 | E,4 F,4 G,4 | C,4 F,,4 G,,4 | C,12 | C,4 D,4 E,4 | F,8 E,4 | D,4 E,4 ^F,4 | G,8 =F,4 | %110
w: ||||||||
 E,4 ^F,4 ^G,4 | A,8 A,,4- | A,,4 x4- x4 | A,,8 A,4 | G,8 F,4 | E,4 ^F,4 ^G,4 | A,8 A,,4- | %117
w: ||* 4|||||
 A,,4 x4- x4 ||[M:4/4] A,,8 | z4 D,4- | D,4 D,4 | D,8- | D,8 | !fermata!A,,8 |] %124
w: * 4|||||||

